luts/photoshop/aces2065-1_to_acescg.3dl
0 64 128 192 256 320 384 448 512 575 639 703 767 831 895 959 1023
0 0 0
0 0 255
0 0 511
0 0 766
0 0 1021
0 0 1277
0 0 1532
0 0 1787
0 0 2043
0 0 2298
0 0 2554
0 0 2809
0 0 3064
0 0 3320
0 0 3575
0 0 3830
0 0 4086
0 301 0
0 276 254
0 250 509
0 225 765
0 199 1020
0 173 1275
0 148 1531
0 122 1786
0 97 2041
0 71 2297
0 46 2552
0 20 2807
0 0 3063
0 0 3318
0 0 3573
0 0 3829
0 0 4084
0 602 0
0 577 252
0 551 508
0 526 763
0 500 1018
0 475 1274
0 449 1529
0 424 1784
0 398 2040
0 372 2295
0 347 2550
0 321 2806
0 296 3061
0 270 3317
0 245 3572
0 219 3827
0 194 4083
0 903 0
0 878 251
0 852 506
0 827 761
0 801 1017
0 776 1272
0 750 1527
0 725 1783
0 699 2038
0 674 2294
0 648 2549
0 623 2804
0 597 3060
0 571 3315
0 546 3570
0 520 3826
0 495 4081
0 1204 0
0 1179 249
0 1153 505
0 1128 760
0 1102 1015
0 1077 1271
0 1051 1526
0 1026 1781
0 1000 2037
0 975 2292
0 949 2547
0 924 2803
0 898 3058
0 873 3313
0 847 3569
0 822 3824
0 796 4079
0 1505 0
0 1480 248
0 1454 503
0 1429 758
0 1403 1014
0 1378 1269
0 1352 1524
0 1327 1780
0 1301 2035
0 1276 2290
0 1250 2546
0 1225 2801
0 1199 3057
0 1174 3312
0 1148 3567
0 1123 3823
0 1097 4078
0 1806 0
0 1781 246
0 1755 501
0 1730 757
0 1704 1012
0 1679 1268
0 1653 1523
0 1628 1778
0 1602 2034
0 1577 2289
0 1551 2544
0 1526 2800
0 1500 3055
0 1475 3310
0 1449 3566
0 1424 3821
0 1398 4076
0 2107 0
0 2082 245
0 2056 500
0 2031 755
0 2005 1011
0 1980 1266
0 1954 1521
0 1929 1777
0 1903 2032
0 1878 2287
0 1852 2543
0 1827 2798
0 1801 3053
0 1776 3309
0 1750 3564
0 1725 3819
0 1699 4075
0 2408 0
0 2383 243
0 2357 498
0 2332 754
0 2306 1009
0 2281 1264
0 2255 1520
0 2230 1775
0 2204 2030
0 2179 2286
0 2153 2541
0 2128 2797
0 2102 3052
0 2077 3307
0 2051 3563
0 2026 3818
0 2000 4073
0 2709 0
0 2684 241
0 2658 497
0 2633 752
0 2607 1008
0 2582 1263
0 2556 1518
0 2531 1774
0 2505 2029
0 2480 2284
0 2454 2540
0 2429 2795
0 2403 3050
0 2378 3306
0 2352 3561
0 2327 3816
0 2301 4072
0 3010 0
0 2985 240
0 2959 495
0 2934 751
0 2908 1006
0 2883 1261
0 2857 1517
0 2832 1772
0 2806 2027
0 2781 2283
0 2755 2538
0 2730 2793
0 2704 3049
0 2679 3304
0 2653 3560
0 2628 3815
0 2602 4070
0 3311 0
0 3286 238
0 3260 494
0 3235 749
0 3209 1004
0 3184 1260
0 3158 1515
0 3133 1770
0 3107 2026
0 3082 2281
0 3056 2537
0 3031 2792
0 3005 3047
0 2980 3303
0 2954 3558
0 2929 3813
0 2903 4069
0 3612 0
0 3587 237
0 3561 492
0 3536 748
0 3510 1003
0 3485 1258
0 3459 1514
0 3434 1769
0 3408 2024
0 3383 2280
0 3357 2535
0 3332 2790
0 3306 3046
0 3281 3301
0 3255 3556
0 3230 3812
0 3204 4067
0 3914 0
0 3888 235
0 3863 491
0 3837 746
0 3811 1001
0 3786 1257
0 3760 1512
0 3735 1767
0 3709 2023
0 3684 2278
0 3658 2533
0 3633 2789
0 3607 3044
0 3582 3300
0 3556 3555
0 3531 3810
0 3505 4066
0 4095 0
0 4095 234
0 4095 489
0 4095 744
0 4095 1000
0 4087 1255
0 4062 1511
0 4036 1766
0 4010 2021
0 3985 2277
0 3959 2532
0 3934 2787
0 3908 3043
0 3883 3298
0 3857 3553
0 3832 3809
0 3806 4064
0 4095 0
0 4095 232
0 4095 488
0 4095 743
0 4095 998
0 4095 1254
0 4095 1509
0 4095 1764
0 4095 2020
0 4095 2275
0 4095 2530
0 4095 2786
0 4095 3041
0 4095 3296
0 4095 3552
0 4095 3807
0 4095 4062
0 4095 0
0 4095 231
0 4095 486
0 4095 741
0 4095 997
0 4095 1252
0 4095 1507
0 4095 1763
0 4095 2018
0 4095 2273
0 4095 2529
0 4095 2784
0 4095 3040
0 4095 3295
0 4095 3550
0 4095 3806
0 4095 4061
371 0 2
316 0 257
261 0 513
206 0 768
151 0 1024
96 0 1279
41 0 1534
0 0 1790
0 0 2045
0 0 2300
0 0 2556
0 0 2811
0 0 3066
0 0 3322
0 0 3577
0 0 3832
0 0 4088
311 281 1
256 256 256
201 230 511
146 205 767
91 179 1022
36 154 1277
0 128 1533
0 103 1788
0 77 2043
0 52 2299
0 26 2554
0 1 2809
0 0 3065
0 0 3320
0 0 3576
0 0 3831
0 0 4086
250 582 0
195 557 254
140 531 510
85 506 765
30 480 1020
0 455 1276
0 429 1531
0 404 1787
0 378 2042
0 353 2297
0 327 2553
0 302 2808
0 276 3063
0 251 3319
0 225 3574
0 200 3829
0 174 4085
190 884 0
135 858 253
80 833 508
25 807 764
0 781 1019
0 756 1274
0 730 1530
0 705 1785
0 679 2040
0 654 2296
0 628 2551
0 603 2806
0 577 3062
0 552 3317
0 526 3572
0 501 3828
0 475 4083
129 1185 0
74 1159 251
19 1134 507
0 1108 762
0 1083 1017
0 1057 1273
0 1032 1528
0 1006 1783
0 980 2039
0 955 2294
0 929 2549
0 904 2805
0 878 3060
0 853 3316
0 827 3571
0 802 3826
0 776 4082
69 1486 0
14 1460 250
0 1435 505
0 1409 760
0 1384 1016
0 1358 1271
0 1333 1527
0 1307 1782
0 1282 2037
0 1256 2293
0 1231 2548
0 1205 2803
0 1179 3059
0 1154 3314
0 1128 3569
0 1103 3825
0 1077 4080
8 1787 0
0 1761 248
0 1736 504
0 1710 759
0 1685 1014
0 1659 1270
0 1634 1525
0 1608 1780
0 1583 2036
0 1557 2291
0 1532 2546
0 1506 2802
0 1481 3057
0 1455 3312
0 1430 3568
0 1404 3823
0 1378 4079
0 2088 0
0 2062 247
0 2037 502
0 2011 757
0 1986 1013
0 1960 1268
0 1935 1523
0 1909 1779
0 1884 2034
0 1858 2289
0 1833 2545
0 1807 2800
0 1782 3056
0 1756 3311
0 1731 3566
0 1705 3822
0 1680 4077
0 2389 0
0 2363 245
0 2338 500
0 2312 756
0 2287 1011
0 2261 1267
0 2236 1522
0 2210 1777
0 2185 2033
0 2159 2288
0 2134 2543
0 2108 2799
0 2083 3054
0 2057 3309
0 2032 3565
0 2006 3820
0 1981 4075
0 2690 0
0 2664 244
0 2639 499
0 2613 754
0 2588 1010
0 2562 1265
0 2537 1520
0 2511 1776
0 2486 2031
0 2460 2286
0 2435 2542
0 2409 2797
0 2384 3052
0 2358 3308
0 2333 3563
0 2307 3819
0 2282 4074
0 2991 0
0 2965 242
0 2940 497
0 2914 753
0 2889 1008
0 2863 1263
0 2838 1519
0 2812 1774
0 2787 2030
0 2761 2285
0 2736 2540
0 2710 2796
0 2685 3051
0 2659 3306
0 2634 3562
0 2608 3817
0 2583 4072
0 3292 0
0 3266 240
0 3241 496
0 3215 751
0 3190 1007
0 3164 1262
0 3139 1517
0 3113 1773
0 3088 2028
0 3062 2283
0 3037 2539
0 3011 2794
0 2986 3049
0 2960 3305
0 2935 3560
0 2909 3815
0 2884 4071
0 3593 0
0 3567 239
0 3542 494
0 3516 750
0 3491 1005
0 3465 1260
0 3440 1516
0 3414 1771
0 3389 2026
0 3363 2282
0 3338 2537
0 3312 2792
0 3287 3048
0 3261 3303
0 3236 3559
0 3210 3814
0 3185 4069
0 3894 0
0 3868 237
0 3843 493
0 3817 748
0 3792 1003
0 3766 1259
0 3741 1514
0 3715 1770
0 3690 2025
0 3664 2280
0 3639 2536
0 3613 2791
0 3588 3046
0 3562 3302
0 3537 3557
0 3511 3812
0 3486 4068
0 4095 0
0 4095 236
0 4095 491
0 4095 747
0 4093 1002
0 4067 1257
0 4042 1513
0 4016 1768
0 3991 2023
0 3965 2279
0 3940 2534
0 3914 2789
0 3889 3045
0 3863 3300
0 3838 3555
0 3812 3811
0 3787 4066
0 4095 0
0 4095 234
0 4095 490
0 4095 745
0 4095 1000
0 4095 1256
0 4095 1511
0 4095 1766
0 4095 2022
0 4095 2277
0 4095 2533
0 4095 2788
0 4095 3043
0 4095 3299
0 4095 3554
0 4095 3809
0 4088 4065
0 4095 0
0 4095 233
0 4095 488
0 4095 743
0 4095 999
0 4095 1254
0 4095 1510
0 4095 1765
0 4095 2020
0 4095 2276
0 4095 2531
0 4095 2786
0 4095 3042
0 4095 3297
0 4095 3552
0 4095 3808
0 4095 4063
743 0 4
688 0 260
633 0 515
578 0 770
523 0 1026
468 0 1281
413 0 1536
358 0 1792
303 0 2047
248 0 2302
193 0 2558
138 0 2813
83 0 3068
28 0 3324
0 0 3579
0 0 3835
0 0 4090
682 262 3
627 236 258
572 211 513
517 185 769
462 160 1024
407 134 1279
352 109 1535
297 83 1790
242 58 2046
187 32 2301
132 7 2556
77 0 2812
22 0 3067
0 0 3322
0 0 3578
0 0 3833
0 0 4088
622 563 1
567 537 257
512 512 512
457 486 767
402 461 1023
347 435 1278
292 410 1533
237 384 1789
182 359 2044
127 333 2299
72 308 2555
17 282 2810
0 257 3065
0 231 3321
0 206 3576
0 180 3831
0 155 4087
561 864 0
506 838 255
451 813 510
396 787 766
341 762 1021
286 736 1276
231 711 1532
176 685 1787
121 660 2042
66 634 2298
11 609 2553
0 583 2809
0 558 3064
0 532 3319
0 507 3575
0 481 3830
0 456 4085
501 1165 0
446 1139 253
391 1114 509
336 1088 764
281 1063 1019
226 1037 1275
171 1012 1530
116 986 1786
61 961 2041
6 935 2296
0 910 2552
0 884 2807
0 859 3062
0 833 3318
0 808 3573
0 782 3828
0 757 4084
440 1466 0
385 1441 252
330 1415 507
275 1389 763
220 1364 1018
165 1338 1273
110 1313 1529
55 1287 1784
0 1262 2039
0 1236 2295
0 1211 2550
0 1185 2805
0 1160 3061
0 1134 3316
0 1109 3571
0 1083 3827
0 1058 4082
380 1767 0
325 1742 250
270 1716 506
215 1691 761
160 1665 1016
105 1640 1272
50 1614 1527
0 1588 1782
0 1563 2038
0 1537 2293
0 1512 2549
0 1486 2804
0 1461 3059
0 1435 3315
0 1410 3570
0 1384 3825
0 1359 4081
319 2068 0
264 2043 249
209 2017 504
154 1992 760
99 1966 1015
44 1941 1270
0 1915 1526
0 1890 1781
0 1864 2036
0 1839 2292
0 1813 2547
0 1787 2802
0 1762 3058
0 1736 3313
0 1711 3568
0 1685 3824
0 1660 4079
259 2369 0
204 2344 247
149 2318 503
94 2293 758
39 2267 1013
0 2242 1269
0 2216 1524
0 2191 1779
0 2165 2035
0 2140 2290
0 2114 2545
0 2089 2801
0 2063 3056
0 2038 3311
0 2012 3567
0 1986 3822
0 1961 4078
198 2670 0
143 2645 246
88 2619 501
33 2594 756
0 2568 1012
0 2543 1267
0 2517 1522
0 2492 1778
0 2466 2033
0 2441 2289
0 2415 2544
0 2390 2799
0 2364 3055
0 2339 3310
0 2313 3565
0 2288 3821
0 2262 4076
138 2971 0
83 2946 244
28 2920 500
0 2895 755
0 2869 1010
0 2844 1266
0 2818 1521
0 2793 1776
0 2767 2032
0 2742 2287
0 2716 2542
0 2691 2798
0 2665 3053
0 2640 3308
0 2614 3564
0 2589 3819
0 2563 4074
77 3272 0
22 3247 243
0 3221 498
0 3196 753
0 3170 1009
0 3145 1264
0 3119 1519
0 3094 1775
0 3068 2030
0 3043 2285
0 3017 2541
0 2992 2796
0 2966 3052
0 2941 3307
0 2915 3562
0 2890 3818
0 2864 4073
17 3573 0
0 3548 241
0 3522 496
0 3497 752
0 3471 1007
0 3446 1262
0 3420 1518
0 3395 1773
0 3369 2029
0 3344 2284
0 3318 2539
0 3293 2795
0 3267 3050
0 3242 3305
0 3216 3561
0 3191 3816
0 3165 4071
0 3874 0
0 3849 240
0 3823 495
0 3798 750
0 3772 1006
0 3747 1261
0 3721 1516
0 3696 1772
0 3670 2027
0 3645 2282
0 3619 2538
0 3594 2793
0 3568 3048
0 3543 3304
0 3517 3559
0 3492 3814
0 3466 4070
0 4095 0
0 4095 238
0 4095 493
0 4095 749
0 4073 1004
0 4048 1259
0 4022 1515
0 3997 1770
0 3971 2025
0 3946 2281
0 3920 2536
0 3895 2792
0 3869 3047
0 3844 3302
0 3818 3558
0 3793 3813
0 3767 4068
0 4095 0
0 4095 236
0 4095 492
0 4095 747
0 4095 1003
0 4095 1258
0 4095 1513
0 4095 1769
0 4095 2024
0 4095 2279
0 4095 2535
0 4095 2790
0 4095 3045
0 4095 3301
0 4095 3556
0 4094 3811
0 4068 4067
0 4095 0
0 4095 235
0 4095 490
0 4095 746
0 4095 1001
0 4095 1256
0 4095 1512
0 4095 1767
0 4095 2022
0 4095 2278
0 4095 2533
0 4095 2788
0 4095 3044
0 4095 3299
0 4095 3554
0 4095 3810
0 4095 4065
1114 0 6
1059 0 262
1004 0 517
949 0 772
894 0 1028
839 0 1283
784 0 1539
729 0 1794
674 0 2049
619 0 2305
564 0 2560
509 0 2815
454 0 3071
399 0 3326
344 0 3581
289 0 3837
234 0 4092
1054 242 5
999 217 260
944 191 516
889 166 771
834 140 1026
779 115 1282
724 89 1537
669 64 1792
614 38 2048
559 13 2303
504 0 2558
449 0 2814
394 0 3069
339 0 3324
284 0 3580
229 0 3835
