luts/photoshop/aces2065-1_to_acescg.3dl
0 128 256 384 512 639 767 895 1023
0 0 0
0 0 511
0 0 1021
0 0 1532
0 0 2043
0 0 2554
0 0 3064
0 0 3575
0 0 4086
0 602 0
0 551 508
0 500 1018
0 449 1529
0 398 2040
0 347 2550
0 296 3061
0 245 3572
0 194 4083
0 1204 0
0 1153 505
0 1102 1015
0 1051 1526
0 1000 2037
0 949 2547
0 898 3058
0 847 3569
0 796 4079
0 1806 0
0 1755 501
0 1704 1012
0 1653 1523
0 1602 2034
0 1551 2544
0 1500 3055
0 1449 3566
0 1398 4076
0 2408 0
0 2357 498
0 2306 1009
0 2255 1520
0 2204 2030
0 2153 2541
0 2102 3052
0 2051 3563
0 2000 4073
0 3010 0
0 2959 495
0 2908 1006
0 2857 1517
0 2806 2027
0 2755 2538
0 2704 3049
0 2653 3560
0 2602 4070
0 3612 0
0 3561 492
0 3510 1003
0 3459 1514
0 3408 2024
0 3357 2535
0 3306 3046
0 3255 3556
0 3204 4067
0 4095 0
0 4095 489
0 4095 1000
0 4062 1511
0 4010 2021
0 3959 2532
0 3908 3043
0 3857 3553
0 3806 4064
0 4095 0
0 4095 486
0 4095 997
0 4095 1507
0 4095 2018
0 4095 2529
0 4095 3040
0 4095 3550
0 4095 4061
743 0 4
633 0 515
523 0 1026
413 0 1536
303 0 2047
193 0 2558
83 0 3068
0 0 3579
0 0 4090
622 563 1
512 512 512
402 461 1023
292 410 1533
182 359 2044
72 308 2555
0 257 3065
0 206 3576
0 155 4087
501 1165 0
391 1114 509
281 1063 1019
171 1012 1530
61 961 2041
0 910 2552
0 859 3062
0 808 3573
0 757 4084
380 1767 0
270 1716 506
160 1665 1016
50 1614 1527
0 1563 2038
0 1512 2549
0 1461 3059
0 1410 3570
0 1359 4081
259 2369 0
149 2318 503
39 2267 1013
0 2216 1524
0 2165 2035
0 2114 2545
0 2063 3056
0 2012 3567
0 1961 4078
138 2971 0
28 2920 500
0 2869 1010
0 2818 1521
0 2767 2032
0 2716 2542
0 2665 3053
0 2614 3564
0 2563 4074
17 3573 0
0 3522 496
0 3471 1007
0 3420 1518
0 3369 2029
0 3318 2539
0 3267 3050
0 3216 3561
0 3165 4071
0 4095 0
0 4095 493
0 4073 1004
0 4022 1515
0 3971 2025
0 3920 2536
0 3869 3047
0 3818 3558
0 3767 4068
0 4095 0
0 4095 490
0 4095 1001
0 4095 1512
0 4095 2022
0 4095 2533
0 4095 3044
0 4095 3554
0 4095 4065
1486 0 9
1376 0 519
1266 0 1030
1156 0 1541
1046 0 2051
936 0 2562
826 0 3073
716 0 3583
606 0 4094
1365 524 5
1255 473 516
1145 422 1027
1035 371 1538
925 320 2048
815 269 2559
705 218 3070
595 167 3580
485 116 4091
1244 1126 2
1134 1075 513
1024 1024 1024
914 973 1534
804 922 2045
694 871 2556
584 820 3067
474 769 3577
364 718 4088
1123 1728 0
1013 1677 510
903 1626 1021
793 1575 1531
683 1524 2042
573 1473 2553
463 1422 3063
353 1371 3574
243 1320 4085
1002 2330 0
892 2279 507
782 2228 1018
672 2177 1528
562 2126 2039
452 2075 2550
342 2024 3060
232 1973 3571
122 1922 4082
881 2932 0
771 2881 504
661 2830 1014
551 2779 1525
441 2728 2036
331 2677 2547
220 2626 3057
110 2575 3568
0 2524 4079
760 3534 0
650 3483 501
539 3432 1011
429 3381 1522
319 3330 2033
209 3279 2544
99 3228 3054
0 3177 3565
0 3126 4076
638 4095 0
528 4085 498
418 4034 1008
308 3983 1519
198 3932 2030
88 3881 2540
0 3830 3051
0 3779 3562
0 3728 4073
517 4095 0
407 4095 495
297 4095 1005
187 4095 1516
77 4095 2027
0 4095 2537
0 4095 3048
0 4095 3559
0 4095 4069
2229 0 13
2119 0 523
2009 0 1034
1899 0 1545
1789 0 2056
1679 0 2566
1569 0 3077
1459 0 3588
1349 0 4095
2108 485 10
1998 434 520
1888 382 1031
1778 331 1542
1668 280 2053
1558 229 2563
1448 178 3074
1338 127 3585
1228 76 4095
1987 1087 7
1877 1036 517
1767 985 1028
1657 934 1539
1547 883 2049
1437 831 2560
1327 780 3071
1217 729 3582
1107 678 4092
1866 1689 4
1756 1638 514
1646 1587 1025
1536 1536 1536
1426 1485 2046
1316 1434 2557
1206 1383 3068
1096 1332 3578
986 1281 4089
1745 2291 0
1635 2240 511
1525 2189 1022
1415 2138 1533
1305 2087 2043
1195 2036 2554
1085 1985 3065
974 1934 3575
864 1883 4086
1624 2893 0
1514 2842 508
1404 2791 1019
1293 2740 1529
1183 2689 2040
1073 2638 2551
963 2587 3062
853 2536 3572
743 2485 4083
1502 3495 0
1392 3444 505
1282 3393 1016
1172 3342 1526
1062 3291 2037
952 3240 2548
842 3189 3058
732 3138 3569
622 3087 4080
1381 4095 0
1271 4046 502
1161 3995 1013
1051 3944 1523
941 3893 2034
831 3842 2545
721 3791 3055
611 3740 3566
501 3689 4077
1260 4095 0
1150 4095 499
1040 4095 1009
930 4095 1520
820 4095 2031
710 4095 2542
600 4095 3052
490 4095 3563
380 4095 4074
2972 0 17
2862 0 528
2752 0 1038
2642 0 1549
2532 0 2060
2422 0 2571
2312 0 3081
2202 0 3592
2092 0 4095
2851 445 14
2741 394 525
2631 343 1035
2521 292 1546
2411 241 2057
2301 190 2567
2191 139 3078
2081 88 3589
1971 37 4095
2730 1047 11
2620 996 522
2510 945 1032
2400 894 1543
2290 843 2054
2180 792 2564
2070 741 3075
1960 690 3586
1850 639 4095
2609 1650 8
2499 1598 518
2389 1547 1029
2279 1496 1540
2169 1445 2051
2059 1394 2561
1949 1343 3072
1839 1292 3583
1728 1241 4093
2488 2252 5
2378 2201 515
2268 2150 1026
2158 2099 1537
2048 2048 2048
1937 1996 2558
1827 1945 3069
1717 1894 3580
1607 1843 4090
2367 2854 2
2256 2803 512
2146 2752 1023
2036 2701 1534
1926 2650 2044
1816 2599 2555
1706 2548 3066
1596 2497 3577
1486 2445 4087
2245 3456 0
2135 3405 509
2025 3354 1020
1915 3303 1531
1805 3252 2041
1695 3201 2552
1585 3150 3063
1475 3099 3573
1365 3048 4084
2124 4058 0
2014 4007 506
1904 3956 1017
1794 3905 1528
1684 3854 2038
1574 3803 2549
1464 3752 3060
1354 3701 3570
1244 3650 4081
2003 4095 0
1893 4095 503
1783 4095 1014
1673 4095 1524
1563 4095 2035
1453 4095 2546
1343 4095 3057
1233 4095 3567
1123 4095 4078
3715 0 21
3605 0 532
3495 0 1043
3385 0 1553
3275 0 2064
3165 0 2575
3055 0 3086
2945 0 3596
2835 0 4095
3594 406 18
3484 355 529
3374 304 1040
3264 253 1550
3154 202 2061
3044 151 2572
2934 100 3082
2824 49 3593
2714 0 4095
3473 1008 15
3363 957 526
3253 906 1037
3143 855 1547
3033 804 2058
2923 753 2569
2813 702 3079
2703 651 3590
2593 600 4095
3352 1610 12
3242 1559 523
3132 1508 1033
3022 1457 1544
2912 1406 2055
2802 1355 2566
2691 1304 3076
2581 1253 3587
2471 1202 4095
3231 2212 9
3121 2161 520
3010 2110 1030
2900 2059 1541
2790 2008 2052
2680 1957 2562
2570 1906 3073
2460 1855 3584
2350 1804 4095
3109 2814 6
2999 2763 517
2889 2712 1027
2779 2661 1538
2669 2610 2049
2559 2559 2559
2449 2508 3070
2339 2457 3581
2229 2406 4091
2988 3417 3
2878 3366 513
2768 3315 1024
2658 3264 1535
2548 3212 2046
2438 3161 2556
2328 3110 3067
2218 3059 3578
2108 3008 4088
2867 4019 0
2757 3968 510
2647 3917 1021
2537 3866 1532
2427 3815 2042
2317 3764 2553
2207 3713 3064
2097 3661 3575
1987 3610 4085
2746 4095 0
2636 4095 507
2526 4095 1018
2416 4095 1529
2306 4095 2039
2196 4095 2550
2086 4095 3061
1976 4095 3572
1866 4095 4082
4095 0 26
4095 0 536
4095 0 1047
4095 0 1558
4018 0 2068
3908 0 2579
3798 0 3090
3688 0 3600
3578 0 4095
4095 367 22
4095 316 533
4095 265 1044
4007 214 1555
3897 163 2065
3787 112 2576
3677 61 3087
3567 10 3597
3457 0 4095
4095 969 19
4095 918 530
3996 867 1041
3886 816 1551
3776 765 2062
3666 714 2573
3556 663 3084
3445 612 3594
3335 561 4095
4095 1571 16
3985 1520 527
3875 1469 1038
3764 1418 1548
3654 1367 2059
3544 1316 2570
3434 1265 3081
3324 1214 3591
3214 1163 4095
3973 2173 13
3863 2122 524
3753 2071 1035
3643 2020 1545
3533 1969 2056
3423 1918 2567
3313 1867 3077
3203 1816 3588
3093 1765 4095
3852 2775 10
3742 2724 521
3632 2673 1032
3522 2622 1542
3412 2571 2053
3302 2520 2564
3192 2469 3074
3082 2418 3585
2972 2367 4095
3731 3377 7
3621 3326 518
3511 3275 1028
3401 3224 1539
3291 3173 2050
3181 3122 2561
3071 3071 3071
2961 3020 3582
2851 2969 4093
3610 3979 4
3500 3928 515
3390 3877 1025
3280 3826 1536
3170 3775 2047
3060 3724 2557
2950 3673 3068
2840 3622 3579
2730 3571 4090
3489 4095 1
3379 4095 512
3269 4095 1022
3159 4095 1533
3049 4095 2044
2939 4095 2554
2829 4095 3065
2719 4095 3576
2609 4095 4086
4095 0 30
4095 0 541
4095 0 1051
4095 0 1562
4095 0 2073
4095 0 2583
4095 0 3094
4095 0 3605
4095 0 4095
4095 328 27
4095 277 537
4095 226 1048
4095 175 1559
4095 124 2070
4095 73 2580
4095 22 3091
4095 0 3602
4095 0 4095
4095 930 24
4095 879 534
4095 828 1045
4095 777 1556
4095 726 2066
4095 675 2577
4095 624 3088
4095 573 3599
4078 522 4095
4095 1532 21
4095 1481 531
4095 1430 1042
4095 1379 1553
4095 1328 2063
4095 1277 2574
4095 1226 3085
4067 1175 3595
3957 1124 4095
4095 2134 17
4095 2083 528
4095 2032 1039
4095 1981 1550
4095 1930 2060
4095 1879 2571
4056 1828 3082
3946 1777 3592
3836 1726 4095
4095 2736 14
4095 2685 525
4095 2634 1036
4095 2583 1546
4095 2532 2057
4045 2481 2568
3935 2430 3079
3825 2379 3589
3715 2328 4095
4095 3338 11
4095 3287 522
4095 3236 1033
4095 3185 1543
4034 3134 2054
3924 3083 2565
3814 3032 3076
3704 2981 3586
3594 2930 4095
4095 3940 8
4095 3889 519
4095 3838 1030
4023 3787 1540
3913 3736 2051
3803 3685 2562
3693 3634 3072
3583 3583 3583
3473 3532 4094
4095 4095 5
4095 4095 516
4012 4095 1027
3902 4095 1537
3792 4095 2048
3682 4095 2559
3572 4095 3069
3462 4095 3580
3352 4095 4091
4095 0 34
4095 0 545
4095 0 1055
4095 0 1566
4095 0 2077
4095 0 2588
4095 0 3098
4095 0 3609
4095 0 4095
4095 289 31
4095 238 542
4095 187 1052
4095 136 1563
4095 85 2074
4095 33 2584
4095 0 3095
4095 0 3606
4095 0 4095
4095 891 28
4095 840 539
4095 789 1049
4095 738 1560
4095 687 2071
4095 636 2581
4095 585 3092
4095 534 3603
4095 483 4095
4095 1493 25
4095 1442 535
4095 1391 1046
4095 1340 1557
4095 1289 2068
4095 1238 2578
4095 1187 3089
4095 1136 3600
4095 1085 4095
4095 2095 22
4095 2044 532
4095 1993 1043
4095 1942 1554
4095 1891 2065
4095 1840 2575
4095 1789 3086
4095 1738 3597
4095 1687 4095
4095 2697 19
4095 2646 529
4095 2595 1040
4095 2544 1551
4095 2493 2061
4095 2442 2572
4095 2391 3083
4095 2340 3594
4095 2289 4095
4095 3299 16
4095 3248 526
4095 3197 1037
4095 3146 1548
4095 3095 2058
4095 3044 2569
4095 2993 3080
4095 2942 3590
4095 2891 4095
4095 3901 12
4095 3850 523
4095 3799 1034
4095 3748 1545
4095 3697 2055
4095 3646 2566
4095 3595 3077
4095 3544 3587
4095 3493 4095
4095 4095 9
4095 4095 520
4095 4095 1031
4095 4095 1541
4095 4095 2052
4095 4095 2563
4095 4095 3074
4095 4095 3584
4095 4095 4095
