luts/photoshop/aces2065-1_to_acescg.3dl
0 256 512 767 1023
0 0 0
0 0 1021
0 0 2043
0 0 3064
0 0 4086
0 1204 0
0 1102 1015
0 1000 2037
0 898 3058
0 796 4079
0 2408 0
0 2306 1009
0 2204 2030
0 2102 3052
0 2000 4073
0 3612 0
0 3510 1003
0 3408 2024
0 3306 3046
0 3204 4067
0 4095 0
0 4095 997
0 4095 2018
0 4095 3040
0 4095 4061
1486 0 9
1266 0 1030
1046 0 2051
826 0 3073
606 0 4094
1244 1126 2
1024 1024 1024
804 922 2045
584 820 3067
364 718 4088
1002 2330 0
782 2228 1018
562 2126 2039
342 2024 3060
122 1922 4082
760 3534 0
539 3432 1011
319 3330 2033
99 3228 3054
0 3126 4076
517 4095 0
297 4095 1005
77 4095 2027
0 4095 3048
0 4095 4069
2972 0 17
2752 0 1038
2532 0 2060
2312 0 3081
2092 0 4095
2730 1047 11
2510 945 1032
2290 843 2054
2070 741 3075
1850 639 4095
2488 2252 5
2268 2150 1026
2048 2048 2048
1827 1945 3069
1607 1843 4090
2245 3456 0
2025 3354 1020
1805 3252 2041
1585 3150 3063
1365 3048 4084
2003 4095 0
1783 4095 1014
1563 4095 2035
1343 4095 3057
1123 4095 4078
4095 0 26
4095 0 1047
4018 0 2068
3798 0 3090
3578 0 4095
4095 969 19
3996 867 1041
3776 765 2062
3556 663 3084
3335 561 4095
3973 2173 13
3753 2071 1035
3533 1969 2056
3313 1867 3077
3093 1765 4095
3731 3377 7
3511 3275 1028
3291 3173 2050
3071 3071 3071
2851 2969 4093
3489 4095 1
3269 4095 1022
3049 4095 2044
2829 4095 3065
2609 4095 4086
4095 0 34
4095 0 1055
4095 0 2077
4095 0 3098
4095 0 4095
4095 891 28
4095 789 1049
4095 687 2071
4095 585 3092
4095 483 4095
4095 2095 22
4095 1993 1043
4095 1891 2065
4095 1789 3086
4095 1687 4095
4095 3299 16
4095 3197 1037
4095 3095 2058
4095 2993 3080
4095 2891 4095
4095 4095 9
4095 4095 1031
4095 4095 2052
4095 4095 3074
4095 4095 4095
